src/pages/Main/ui/Program/ScheduleItem/images/night.svg

<svg fill="none" height="14" viewBox="0 0 32 14" width="32" xmlns="http://www.w3.org/2000/svg"><g stroke="#fff" stroke-miterlimit="10" stroke-width=".425136"><path d="m29.3159 8.66012c-.3595 1.44528-1.1529 2.62818-2.4427 3.50658-.815.5557-1.7369.8712-2.7326 1.0005-1.9002.2462-3.7079-.108-5.4604-.766-.4478-.1679-.8781-.3811-1.3012-.5982-.566-.2909-1.156-.4549-1.8072-.3989-.4519.0386-.8648.1824-1.2531.3928-1.33.7207-2.7651 1.1571-4.2817 1.3602-1.28198.1718-2.55616.1377-3.78533-.2848-1.89056-.6502-3.10232-1.9125-3.73431-3.67895-.05821-.16282-.11343-.329-.14284-.49798-.02821-.16059-.42613-1.38598.14464-3.36282.49935-1.48613 1.45424-2.60744 3.0039-3.2677 1.25377-.53436 2.56336-.88463 3.91316-1.114597 1.55688-.26522 3.12998-.384402 4.71078-.424688 2.5268-.063788 5.0487-.027977 7.5533.33796 1.2453.182405 2.4691.448745 3.6455.879595.6379.23388 1.2687.48512 1.8221.86952 1.1793.81916 1.8275 1.94831 2.145 3.2621.2311 1.06424.027 2.69081.0036 2.78594z"/><path d="m29.2036 5.24481c1.5126.31868 2.202 1.54616 2.0959 2.14874-.082.46625-.7592.8012-1.8925 1.00396"/><path d="m2.24257 7.80249c-1.23244-.22742-1.952183-.57329-2.015404-1.0339-.081435-.59331.564701-1.71328 2.411484-2.01723"/></g></svg>

<svg width="32" height="14" viewBox="0 0 32 14" fill="none" xmlns="http://www.w3.org/2000/svg">
    <path d="M29.3159 8.66012C28.9564 10.1054 28.163 11.2883 26.8732 12.1667C26.0582 12.7224 25.1363 13.0379 24.1406 13.1672C22.2404 13.4134 20.4327 13.0592 18.6802 12.4012C18.2324 12.2333 17.8021 12.0201 17.379 11.803C16.813 11.5121 16.223 11.3481 15.5718 11.4041C15.1199 11.4427 14.707 11.5865 14.3187 11.7969C12.9887 12.5176 11.5536 12.954 10.037 13.1571C8.75502 13.3289 7.48084 13.2948 6.25167 12.8723C4.36111 12.2221 3.14935 10.9598 2.51736 9.19335C2.45915 9.03053 2.40393 8.86435 2.37452 8.69537C2.34631 8.53478 1.94839 7.30939 2.51916 5.33255C3.01851 3.84642 3.9734 2.72511 5.52306 2.06485C6.77683 1.53049 8.08642 1.18022 9.43622 0.950253C10.9931 0.685033 12.5662 0.565851 14.147 0.525565C16.6738 0.461777 19.1957 0.497588 21.7003 0.863525C22.9456 1.04593 24.1694 1.31227 25.3458 1.74312C25.9837 1.977 26.6145 2.22824 27.1679 2.61264C28.3472 3.4318 28.9954 4.56095 29.3129 5.87474C29.544 6.93898 29.3399 8.56555 29.3165 8.66068L29.3159 8.66012Z" stroke="white" stroke-width="0.425136" stroke-miterlimit="10"/>
    <path d="M29.2036 5.24481C30.7162 5.56349 31.4056 6.79097 31.2995 7.39355C31.2175 7.8598 30.5403 8.19475 29.407 8.39751" stroke="white" stroke-width="0.425136" stroke-miterlimit="10"/>
    <path d="M2.24257 7.80249C1.01013 7.57507 0.290387 7.2292 0.227166 6.76859C0.145731 6.17528 0.791867 5.05531 2.63865 4.75136" stroke="white" stroke-width="0.425136" stroke-miterlimit="10"/>
</svg>
